packages/icons/src/components/Icon/assets/small-outline/email.svg

<svg width="16" height="16" viewBox="0 0 16 16" fill="none" xmlns="http://www.w3.org/2000/svg">
<path fill-rule="evenodd" clip-rule="evenodd" d="M1 4.54408C1 3.40411 1.92413 2.47998 3.0641 2.47998H12.9359C14.0759 2.47998 15 3.40411 15 4.54408V11.4543C15 12.5943 14.0759 13.5184 12.9359 13.5184H3.0641C1.92413 13.5184 1 12.5943 1 11.4543V4.54408ZM2.16667 4.54408V4.70382C2.16667 5.01546 2.32834 5.30479 2.59376 5.46812L7.52966 8.5056C7.8181 8.6831 8.1819 8.6831 8.47034 8.5056L13.4062 5.46812C13.6717 5.30479 13.8333 5.01546 13.8333 4.70382V4.54408C13.8333 4.04844 13.4315 3.64665 12.9359 3.64665H3.0641C2.56846 3.64665 2.16667 4.04844 2.16667 4.54408ZM13.8333 6.57518L9.08179 9.4992C8.41837 9.90746 7.58163 9.90746 6.91821 9.4992L2.16667 6.57518V11.4543C2.16667 11.95 2.56846 12.3518 3.0641 12.3518H12.9359C13.4315 12.3518 13.8333 11.95 13.8333 11.4543V6.57518Z" fill="black"/>
</svg>

<svg xmlns="http://www.w3.org/2000/svg" width="16" height="16" fill="none" viewBox="0 0 16 16">
    <path d="M1 4.544c0-1.14.924-2.064 2.064-2.064h9.872c1.14 0 2.064.924 2.064 2.064v6.91c0 1.14-.924 2.064-2.064 2.064H3.064A2.064 2.064 0 0 1 1 11.454zm1.167 0v.16c0 .311.161.6.427.764L7.53 8.506a.9.9 0 0 0 .94 0l4.936-3.038a.9.9 0 0 0 .427-.764v-.16a.897.897 0 0 0-.897-.897H3.064a.897.897 0 0 0-.897.897m11.666 2.031L9.082 9.5c-.664.408-1.5.408-2.164 0L2.167 6.575v4.88c0 .495.401.897.897.897h9.872a.897.897 0 0 0 .897-.898z" clip-rule="evenodd"/>
</svg>
